img/vk.svg

<svg width="60" height="60" viewBox="0 0 60 60" fill="none" xmlns="http://www.w3.org/2000/svg">
<path d="M0 30C0 13.4315 13.4315 0 30 0C46.5685 0 60 13.4315 60 30C60 46.5685 46.5685 60 30 60C13.4315 60 0 46.5685 0 30Z" fill="#4C6C91"/>
<path d="M31.5693 39.8451C31.5693 39.8451 32.1469 39.7821 32.4427 39.4702C32.7134 39.1845 32.704 38.6452 32.704 38.6452C32.704 38.6452 32.668 36.1272 33.8591 35.7554C35.0329 35.3898 36.5402 38.1905 38.1397 39.2674C39.348 40.0817 40.2651 39.9035 40.2651 39.9035L44.5395 39.8451C44.5395 39.8451 46.7745 39.7099 45.7149 37.9846C45.6272 37.8433 45.0967 36.7079 42.5377 34.3758C39.8566 31.9346 40.2166 32.3294 43.4439 28.1061C45.4097 25.5343 46.1954 23.9642 45.9497 23.2928C45.7165 22.6506 44.2703 22.8212 44.2703 22.8212L39.4591 22.8504C39.4591 22.8504 39.1023 22.8027 38.8378 22.9579C38.5795 23.11 38.412 23.4649 38.412 23.4649C38.412 23.4649 37.6514 25.4544 36.6356 27.1474C34.493 30.7178 33.6369 30.9068 33.2863 30.6856C32.4708 30.1678 32.6743 28.6085 32.6743 27.5008C32.6743 24.0395 33.2096 22.5969 31.6335 22.2235C31.1107 22.0991 30.7257 22.0177 29.3875 22.0038C27.6706 21.9869 26.2182 22.01 25.3949 22.4048C24.8471 22.6675 24.4245 23.2544 24.6828 23.2882C25.0005 23.3297 25.7205 23.4787 26.1024 23.9888C26.5954 24.6478 26.5782 26.1258 26.5782 26.1258C26.5782 26.1258 26.8614 30.2001 25.9161 30.7055C25.2681 31.0527 24.3792 30.3445 22.4681 27.1044C21.4899 25.4452 20.7512 23.6108 20.7512 23.6108C20.7512 23.6108 20.6088 23.2682 20.3537 23.0839C20.0453 22.8611 19.6149 22.792 19.6149 22.792L15.0432 22.8212C15.0432 22.8212 14.3561 22.8396 14.1041 23.133C13.8803 23.3927 14.0869 23.9319 14.0869 23.9319C14.0869 23.9319 17.6664 32.1528 21.72 36.2962C25.4372 40.094 29.6567 39.8451 29.6567 39.8451H31.5693Z" fill="white"/>
</svg>

<svg width="60" height="60" fill="none" xmlns="http://www.w3.org/2000/svg"><path d="M0 30C0 13.431 13.431 0 30 0c16.569 0 30 13.431 30 30 0 16.569-13.431 30-30 30C13.431 60 0 46.569 0 30z" fill="#4C6C91"/><path d="M31.57 39.845s.577-.063.873-.375c.27-.285.261-.825.261-.825s-.036-2.518 1.155-2.89c1.174-.365 2.681 2.435 4.28 3.512 1.209.815 2.126.636 2.126.636l4.274-.058s2.236-.135 1.176-1.86c-.088-.142-.618-1.277-3.177-3.61-2.681-2.44-2.321-2.046.906-6.269 1.966-2.572 2.751-4.142 2.506-4.813-.233-.642-1.68-.472-1.68-.472l-4.81.03s-.358-.048-.622.107c-.258.152-.426.507-.426.507s-.76 1.99-1.776 3.682c-2.143 3.57-3 3.76-3.35 3.539-.815-.518-.612-2.078-.612-3.185 0-3.462.536-4.904-1.04-5.277-.523-.125-.908-.206-2.247-.22-1.716-.017-3.169.006-3.992.4-.548.264-.97.85-.712.884.317.042 1.038.19 1.42.7.492.66.475 2.138.475 2.138s.283 4.074-.662 4.58c-.648.347-1.537-.361-3.448-3.602-.978-1.659-1.717-3.493-1.717-3.493s-.142-.343-.397-.527c-.309-.223-.74-.292-.74-.292l-4.57.03s-.688.018-.94.311c-.224.26-.017.799-.017.799s3.58 8.22 7.633 12.364c3.717 3.798 7.937 3.55 7.937 3.55h1.912z" fill="#fff"/></svg>
